src/ui/webui/resources/cr_components/chromeos/network/cellular_0.svg

<svg width="20" height="20" viewBox="0 0 20 20" xmlns="http://www.w3.org/2000/svg">
<path fill-rule="evenodd" clip-rule="evenodd" d="M15.002 15.002V7.41622L7.41622 15.002H15.002ZM16.002 17.002C16.5543 17.002 17.002 16.5543 17.002 16.002V5.002C17.002 4.1111 15.9249 3.66493 15.2949 4.2949L4.2949 15.2949C3.66493 15.9249 4.1111 17.002 5.002 17.002H16.002Z" />
</svg>

<svg width="20" height="20" viewBox="0 0 20 20" xmlns="http://www.w3.org/2000/svg"><path fill-rule="evenodd" clip-rule="evenodd" d="M15.002 15.002V7.416l-7.586 7.586h7.586Zm1 2a1 1 0 0 0 1-1v-11c0-.89-1.077-1.337-1.707-.707l-11 11c-.63.63-.184 1.707.707 1.707h11Z"/></svg>
